X:1
T: Belfast Ham
C:
R:Jig
Q:180
K:D
M:6/8
L:1/16
|:A2F2A2 d4c2|B4B2 e4f2|g2f2e2 d2c2B2|A2B2G2 F4G2|
A2F2A2 d4c2|B4B2 e2f2g2|f2e2d2 A2d2c2|d6 d4A2|
d4f2 a2f2d2|c2e2c2 A2B2c2|d4f2 a2f2d2|g6 f4g2|
a2g2f2 g2f2e2|f2e2d2 e2f2g2|f2e2d2 A2c2d2|1d6 d4A2:|2d6 d6||
